images/sword.svg

<?xml version="1.0" encoding="UTF-8" standalone="no"?>
<svg width="494px" height="98px" viewBox="0 0 494 98" version="1.1" xmlns="http://www.w3.org/2000/svg" xmlns:xlink="http://www.w3.org/1999/xlink">
    <!-- Generator: Sketch 39.1 (31720) - http://www.bohemiancoding.com/sketch -->
    <title>мечь</title>
    <desc>Created with Sketch.</desc>
    <defs>
        <path d="M0.13170284,48.5 C0.13170284,48.5 19.5424054,44.2139618 132.000004,41.1264462 C225.498678,38.5594466 361.913286,37.4085253 405.251441,37.0934223 C408.190738,37.0720512 409.455065,36.2016735 411.495655,36.1878108 C415.555926,36.1602273 419,37 419,37 L419,60 C419,60 416.236652,60.9199946 411.495655,60.9172922 C409.669993,60.9162516 407.681834,60.008687 405.251454,60.0000006 C359.936698,59.8380415 213.29399,59.1136556 132.000004,56.8817348 C35.0234545,54.2192504 0.13170284,48.5 0.13170284,48.5 Z" id="path-1"></path>
        <mask id="mask-2" maskContentUnits="userSpaceOnUse" maskUnits="objectBoundingBox" x="0" y="0" width="418.868297" height="24.7301523" fill="white">
            <use xlink:href="#path-1"></use>
        </mask>
        <path d="M424,42 L429.647126,42 C429.647126,42 432.98053,38.0804627 436.626032,38.0804626 C440.271534,38.0804626 444.06637,41.9999999 444.06637,41.9999999 C444.06637,41.9999999 448.819431,37.0107463 451.649466,36.882298 C454.4795,36.7538496 460.275742,41.9999998 460.275742,41.9999998 L477,42 C477,42 472.425507,45.25 472.425507,48.5 C472.425507,51.75 477,55 477,55 L460.275742,55.0000005 C460.275742,55.0000005 454.533605,60.2916059 451.649466,60.2916059 C448.765326,60.2916059 444.06637,54.9999993 444.06637,54.9999993 C444.06637,54.9999993 440.194883,59.3000937 436.626032,59.3000939 C433.05718,59.3000941 429.647126,55.0000002 429.647126,55.0000002 L424,55 L424,42 Z" id="path-3"></path>
        <mask id="mask-4" maskContentUnits="userSpaceOnUse" maskUnits="objectBoundingBox" x="0" y="0" width="53" height="23.4116287" fill="white">
            <use xlink:href="#path-3"></use>
        </mask>
        <path d="M418,69.2274246 C418,67.3866519 415.769157,63.3393555 415.769157,63.3393555 L415.769157,34.1183004 L418,29.8480911 L418,19 C418,19 419.5,19.4094874 421,19.4094874 C422.5,19.4094874 424,19 424,19 L424,29.8480907 L425.917088,34.1183004 L425.917088,63.3393555 L424,69.2274246 L424,80 C424,80 422.5,78.8437958 421,78.8437958 C419.5,78.8437958 418,80 418,80 L418,69.2274246 Z" id="path-5"></path>
        <mask id="mask-6" maskContentUnits="userSpaceOnUse" maskUnits="objectBoundingBox" x="0" y="0" width="10.1479311" height="61" fill="white">
            <use xlink:href="#path-5"></use>
        </mask>
    </defs>
    <g id="Page-1" stroke="none" stroke-width="1" fill="none" fill-rule="evenodd">
        <g id="мечь">
            <use id="Rectangle-2" stroke="#C6C6C6" mask="url(#mask-2)" stroke-width="2" fill="#F1F1F1" xlink:href="#path-1"></use>
            <path d="M6.5,48.5 L417.5,48.5" id="Line" stroke="#FFFFFF" stroke-linecap="square"></path>
            <use id="Rectangle-4" stroke="#7B0000" mask="url(#mask-4)" stroke-width="2" fill="#BB0000" xlink:href="#path-3"></use>
            <use id="Rectangle-3" stroke="#7B0000" mask="url(#mask-6)" stroke-width="2" fill="#BC0000" xlink:href="#path-5"></use>
            <path d="M421,19.6621351 C425.970563,19.6621351 430,17.9705627 430,13 C430,10.5256781 424.793778,7.88777876 424.793778,7.88777876 L421,0.745436967 L416.484094,7.88777876 C416.484094,7.88777876 412,10.5057006 412,13 C412,17.9705627 416.029437,19.6621351 421,19.6621351 Z" id="Oval-4" stroke="#FFFFFF" fill="#BB0000"></path>
            <path d="M482.810689,59.8106892 C488.885821,59.8106892 493.810689,57.8772584 493.810689,52.1960123 C493.810689,49.3679157 487.44753,46.3528536 487.44753,46.3528536 L482.810689,38.1893108 L477.291248,46.3528536 C477.291248,46.3528536 471.810689,49.3450818 471.810689,52.1960123 C471.810689,57.8772584 476.735557,59.8106892 482.810689,59.8106892 Z" id="Oval-4" stroke="#FFFFFF" fill="#BB0000" transform="translate(482.810689, 49.000000) rotate(90.000000) translate(-482.810689, -49.000000) "></path>
            <path d="M421,97.9166982 C425.970563,97.9166982 430,96.2251258 430,91.254563 C430,88.7802412 424.793778,86.1423418 424.793778,86.1423418 L421,79 L416.484094,86.1423418 C416.484094,86.1423418 412,88.7602636 412,91.254563 C412,96.2251258 416.029437,97.9166982 421,97.9166982 Z" id="Oval-4" stroke="#FFFFFF" fill="#BB0000" transform="translate(421.000000, 88.458349) scale(1, -1) translate(-421.000000, -88.458349) "></path>
        </g>
    </g>
</svg>

<svg width="494" height="98" viewBox="0 0 494 98" xmlns="http://www.w3.org/2000/svg" xmlns:xlink="http://www.w3.org/1999/xlink"><title>мечь</title><defs><path d="M.132 48.5S19.542 44.214 132 41.126c93.499-2.567 229.913-3.717 273.251-4.033 2.94-.02 4.204-.891 6.245-.905C415.556 36.16 419 37 419 37v23s-2.763.92-7.504.917c-1.826 0-3.814-.908-6.245-.917-45.314-.162-191.957-.886-273.251-3.118C35.023 54.219.132 48.5.132 48.5z" id="a"/><mask id="d" x="0" y="0" width="418.868" height="24.73" fill="#fff"><use xlink:href="#a"/></mask><path d="M424 42h5.647s3.334-3.92 6.979-3.92c3.646 0 7.44 3.92 7.44 3.92s4.753-4.99 7.583-5.118c2.83-.128 8.627 5.118 8.627 5.118H477s-4.574 3.25-4.574 6.5S477 55 477 55h-16.724s-5.742 5.292-8.627 5.292c-2.884 0-7.583-5.292-7.583-5.292s-3.871 4.3-7.44 4.3c-3.569 0-6.979-4.3-6.979-4.3H424V42z" id="b"/><mask id="e" x="0" y="0" width="53" height="23.412" fill="#fff"><use xlink:href="#b"/></mask><path d="M418 69.227c0-1.84-2.23-5.888-2.23-5.888V34.12l2.23-4.27V19s1.5.41 3 .41 3-.41 3-.41v10.848l1.917 4.27V63.34L424 69.227V80s-1.5-1.156-3-1.156S418 80 418 80V69.227z" id="c"/><mask id="f" x="0" y="0" width="10.148" height="61" fill="#fff"><use xlink:href="#c"/></mask></defs><g fill="none" fill-rule="evenodd"><use stroke="#C6C6C6" mask="url(#d)" stroke-width="2" fill="#F1F1F1" xlink:href="#a"/><path d="M6.5 48.5h411" stroke="#FFF" stroke-linecap="square"/><use stroke="#7B0000" mask="url(#e)" stroke-width="2" fill="#B00" xlink:href="#b"/><use stroke="#7B0000" mask="url(#f)" stroke-width="2" fill="#BC0000" xlink:href="#c"/><path d="M421 19.662c4.97 0 9-1.691 9-6.662 0-2.474-5.206-5.112-5.206-5.112L421 .745l-4.516 7.143S412 10.506 412 13c0 4.97 4.03 6.662 9 6.662zM472 49c0 6.075 1.933 11 7.615 11 2.828 0 5.843-6.363 5.843-6.363L493.62 49l-8.163-5.52S482.466 38 479.615 38C473.933 38 472 42.925 472 49zM421 79c4.97 0 9 1.692 9 6.662 0 2.474-5.206 5.112-5.206 5.112L421 97.917l-4.516-7.143S412 88.156 412 85.662c0-4.97 4.03-6.662 9-6.662z" stroke="#FFF" fill="#B00"/></g></svg>
